X: 1
T:Old Torn Petticoat, The
R:reel
N:See also #570
D:Michael Tubridy: The Eagle's Whistle
Z:id:hn-reel-294
M:C|
K:Ador
c2Bc AGEF|G2BG dGBG|cABG AE~E2|GABG A2AB|
c2Bc AGEF|G2BG dGBG|cABG AE~E2|GABG A2AB:|
cdef g2fg|gedc BG~G2|cdef g2fg|eaag aged|
cdef g2fg|gedc BG~G2|cABG AE~E2|GABG A2AB||
cdef g2fg|gedc BG~G2|cdef g2fg|eaag a2ga|
bagb agef|gedc BG~G2|cABG AE~E2|GABG A2AB||
